polaris-icons/icons/newicons/FolderMinusMajor.svg

<svg width="20" height="20" viewBox="0 0 20 20" fill="none" xmlns="http://www.w3.org/2000/svg">
<path d="M3.5 6.75C3.5 6.05964 4.05964 5.5 4.75 5.5H6.76393C7.2374 5.5 7.67023 5.7675 7.88197 6.19098L8.05279 6.53262C8.34922 7.1255 8.95518 7.5 9.61803 7.5H15.25C15.9404 7.5 16.5 8.05964 16.5 8.75C16.5 9.16421 16.8358 9.5 17.25 9.5C17.6642 9.5 18 9.16421 18 8.75C18 7.23122 16.7688 6 15.25 6H9.61803C9.52334 6 9.43678 5.9465 9.39443 5.8618L9.22361 5.52016C8.75778 4.58851 7.80556 4 6.76393 4H4.75C3.23122 4 2 5.23122 2 6.75V13.25C2 14.7688 3.23122 16 4.75 16H10.75C11.1642 16 11.5 15.6642 11.5 15.25C11.5 14.8358 11.1642 14.5 10.75 14.5H4.75C4.05964 14.5 3.5 13.9404 3.5 13.25V6.75Z" fill="black"/>
<path d="M13.75 12C13.3358 12 13 12.3358 13 12.75C13 13.1642 13.3358 13.5 13.75 13.5H18.25C18.6642 13.5 19 13.1642 19 12.75C19 12.3358 18.6642 12 18.25 12H13.75Z" fill="black"/>
</svg>

<svg viewBox="0 0 20 20" fill="none" xmlns="http://www.w3.org/2000/svg"><path d="M3.5 6.75c0-.69.56-1.25 1.25-1.25h2.014c.473 0 .906.268 1.118.691l.17.342a1.75 1.75 0 0 0 1.566.967h5.632c.69 0 1.25.56 1.25 1.25a.75.75 0 0 0 1.5 0 2.75 2.75 0 0 0-2.75-2.75h-5.632a.25.25 0 0 1-.224-.138l-.17-.342a2.75 2.75 0 0 0-2.46-1.52h-2.014a2.75 2.75 0 0 0-2.75 2.75v6.5a2.75 2.75 0 0 0 2.75 2.75h6a.75.75 0 0 0 0-1.5h-6c-.69 0-1.25-.56-1.25-1.25v-6.5Z" fill="#000"/><path d="M13.75 12a.75.75 0 0 0 0 1.5h4.5a.75.75 0 0 0 0-1.5h-4.5Z" fill="#000"/></svg>
